X:352
T:Tarbolton
Z: id:dc-reel-329
M:C
L:1/8
K:E Minor
D|Eeed e2AF|GBAF GEEF|Ddd^c d2AF|GBAG FDDF|!
Eeed efge|fedf edBA|GABG F2Ac|BGAF GEE:|!
f|gfef gebe|gebe gfe^c|defg a2AF|GBAG FDDF|!
G2BG F2AF|Eeef gfed|BcdB AGFA|BGAF GEE:|!

